snap/Costumes/orange2-a.svg

<?xml version="1.0" encoding="UTF-8" standalone="no"?>
<svg
   xmlns:dc="http://purl.org/dc/elements/1.1/"
   xmlns:cc="http://creativecommons.org/ns#"
   xmlns:rdf="http://www.w3.org/1999/02/22-rdf-syntax-ns#"
   xmlns:svg="http://www.w3.org/2000/svg"
   xmlns="http://www.w3.org/2000/svg"
   xmlns:sodipodi="http://sodipodi.sourceforge.net/DTD/sodipodi-0.dtd"
   xmlns:inkscape="http://www.inkscape.org/namespaces/inkscape"
   version="1.1"
   width="88"
   height="96"
   id="svg667"
   sodipodi:docname="orange2-a.svg"
   inkscape:version="0.92.2 5c3e80d, 2017-08-06">
  <metadata
     id="metadata673">
    <rdf:RDF>
      <cc:Work
         rdf:about="">
        <dc:format>image/svg+xml</dc:format>
        <dc:type
           rdf:resource="http://purl.org/dc/dcmitype/StillImage" />
        <dc:title></dc:title>
      </cc:Work>
    </rdf:RDF>
  </metadata>
  <defs
     id="defs671" />
  <sodipodi:namedview
     pagecolor="#ffffff"
     bordercolor="#666666"
     borderopacity="1"
     objecttolerance="10"
     gridtolerance="10"
     guidetolerance="10"
     inkscape:pageopacity="0"
     inkscape:pageshadow="2"
     inkscape:window-width="640"
     inkscape:window-height="480"
     id="namedview669"
     showgrid="false"
     fit-margin-top="0"
     fit-margin-left="0"
     fit-margin-right="0"
     fit-margin-bottom="0"
     inkscape:zoom="2.4705882"
     inkscape:cx="56.015941"
     inkscape:cy="28.013285"
     inkscape:window-x="-2"
     inkscape:window-y="-2"
     inkscape:window-maximized="0"
     inkscape:current-layer="svg667" />
  <!-- Exported by Scratch - http://scratch.mit.edu/ -->
  <g
     id="ID0.5701378411613405"
     transform="matrix(0.77378094,0,0,0.77378094,-12.934059,7.9867144)">
    <path
       id="ID0.7662904155440629"
       d="m 198.125,212.9 c 10.367,0 19.76,1.014 26.562,2.652 6.803,1.639 11.013,3.901 11.013,6.398 0,2.497 -4.21,4.759 -11.013,6.398 -6.802,1.638 -16.195,2.652 -26.562,2.652 -10.367,0 -19.76,-1.014 -26.562,-2.652 -6.803,-1.639 -11.013,-3.901 -11.013,-6.398 0,-2.497 4.21,-4.759 11.013,-6.398 6.802,-1.638 16.195,-2.652 26.562,-2.652 z"
       transform="matrix(0.92530656,-0.00396135,-0.00512801,1.6232984,-90.25,-262.85)"
       inkscape:connector-curvature="0"
       style="fill:#919191;stroke:#919191;stroke-width:2.95272493" />
    <path
       id="ID0.8972083395346999"
       d="m 219.625,162.15 c 18.147,0 34.591,3.538 46.498,9.254 11.907,5.716 18.23,12.558 19.277,22.321 1.414,13.251 -4.106,28.516 -13.85,38.075 -10.672,11.012 -26.684,18.113 -42.45,18.65 -18.334,0.622 -38.39,-4.468 -52.85,-15.55 -12.685,-9.38 -21.892,-25.799 -22.4,-41.175 -0.32,-9.814 7.37,-16.605 19.277,-22.321 11.907,-5.716 28.351,-9.254 46.498,-9.254 z"
       transform="matrix(0.82755679,0.33587992,-0.33587992,0.82755679,-43,-184.3)"
       inkscape:connector-curvature="0"
       style="fill:#a85b00;stroke:none;stroke-linecap:round" />
    <path
       id="ID0.10735392430797219"
       d="m 220.125,156.45 c 17.292,0 32.96,2.785 44.306,7.283 11.346,4.499 18.369,10.711 18.369,17.567 0,6.856 -7.023,13.068 -18.369,17.567 -11.346,4.498 -27.014,7.283 -44.306,7.283 -17.292,0 -32.96,-2.785 -44.306,-7.283 -11.346,-4.499 -18.369,-10.711 -18.369,-17.567 0,-6.856 7.023,-13.068 18.369,-17.567 11.346,-4.498 27.014,-7.283 44.306,-7.283 z"
       transform="matrix(0.82755679,0.33587992,-0.33587992,0.82755679,-45.05,-179.65)"
       inkscape:connector-curvature="0"
       style="fill:#ef9300;stroke:#eac28e;stroke-width:2.75322509;stroke-linecap:round" />
    <path
       id="ID0.4141157087869942"
       d="m 216,162.65 c 0,0 1.089,19.247 -1.05,28.5 -1.582,6.843 -9.85,18.65 -9.85,18.65"
       transform="matrix(0.82755679,0.33587992,-0.33587992,0.82755679,-42.9,-183.75)"
       inkscape:connector-curvature="0"
       style="fill:none;stroke:#eac28e;stroke-width:1.99512506;stroke-linecap:round" />
    <path
       id="ID0.011384283192455769"
       d="m 215.45,186.45 48.2,-17.05"
       transform="matrix(0.82755679,0.33587992,-0.33587992,0.82755679,-42.9,-183.75)"
       inkscape:connector-curvature="0"
       style="fill:none;stroke:#eac28e;stroke-width:1.99512506;stroke-linecap:round" />
    <path
       id="ID0.8657065210863948"
       d="m 255.35,206.15 c 0,0 -39.9,-18.65 -39.9,-18.65 L 159,180.8"
       transform="matrix(0.82755679,0.33587992,-0.33587992,0.82755679,-42.9,-183.75)"
       inkscape:connector-curvature="0"
       style="fill:none;stroke:#eac28e;stroke-width:1.99512506;stroke-linecap:round" />
    <path
       id="ID0.9600630304776132"
       d="m 213.4,187.5 -39.35,15.05"
       transform="matrix(0.82755679,0.33587992,-0.33587992,0.82755679,-42.9,-183.75)"
       inkscape:connector-curvature="0"
       style="fill:none;stroke:#eac28e;stroke-width:1.99512506;stroke-linecap:round" />
    <path
       id="ID0.13748089503496885"
       d="m 214.45,188.55 -31.1,-22.3"
       transform="matrix(0.82755679,0.33587992,-0.33587992,0.82755679,-42.9,-183.75)"
       inkscape:connector-curvature="0"
       style="fill:none;stroke:#eac28e;stroke-width:1.99512506;stroke-linecap:round" />
    <path
       id="ID0.14989860635250807"
       d="m 216,189.05 65.25,-1"
       transform="matrix(0.82755679,0.33587992,-0.33587992,0.82755679,-42.9,-183.75)"
       inkscape:connector-curvature="0"
       style="fill:none;stroke:#eac28e;stroke-width:1.99512506;stroke-linecap:round" />
  </g>
</svg>

<svg version="1.1" width="139" height="119" xmlns="http://www.w3.org/2000/svg" xmlns:xlink="http://www.w3.org/1999/xlink">
  <!-- Exported by Scratch - http://scratch.mit.edu/ -->
  <g id="ID0.5701378411613405" transform="matrix(0.7737809419631958, 0, 0, 0.7737809419631958, 0.55, -0.5)">
    <path id="ID0.7662904155440629" fill="#919191" stroke="#919191" stroke-width="2.952725" d="M 198.125 212.900 C 208.492 212.900 217.885 213.914 224.687 215.552 C 231.490 217.191 235.700 219.453 235.700 221.950 C 235.700 224.447 231.490 226.709 224.687 228.348 C 217.885 229.986 208.492 231 198.125 231 C 187.758 231 178.365 229.986 171.563 228.348 C 164.760 226.709 160.550 224.447 160.550 221.950 C 160.550 219.453 164.760 217.191 171.563 215.552 C 178.365 213.914 187.758 212.900 198.125 212.900 Z " transform="matrix(0.9253065586090088, -0.003961353562772274, -0.005128008313477039, 1.6232984066009521, -90.25, -262.85)"/>
    <path id="ID0.8972083395346999" fill="#A85B00" stroke="none" stroke-linecap="round" d="M 219.625 162.150 C 237.772 162.150 254.216 165.688 266.123 171.404 C 278.030 177.120 284.353 183.962 285.400 193.725 C 286.814 206.976 281.294 222.241 271.550 231.800 C 260.878 242.812 244.866 249.913 229.100 250.450 C 210.766 251.072 190.710 245.982 176.250 234.900 C 163.565 225.520 154.358 209.101 153.850 193.725 C 153.530 183.911 161.220 177.120 173.127 171.404 C 185.034 165.688 201.478 162.150 219.625 162.150 Z " transform="matrix(0.8275567889213562, 0.335879921913147, -0.335879921913147, 0.8275567889213562, -43, -184.3)"/>
    <path id="ID0.10735392430797219" fill="#EF9300" stroke="#EAC28E" stroke-width="2.753225" stroke-linecap="round" d="M 220.125 156.450 C 237.417 156.450 253.085 159.235 264.431 163.733 C 275.777 168.232 282.800 174.444 282.800 181.300 C 282.800 188.156 275.777 194.368 264.431 198.867 C 253.085 203.365 237.417 206.150 220.125 206.150 C 202.833 206.150 187.165 203.365 175.819 198.867 C 164.473 194.368 157.450 188.156 157.450 181.300 C 157.450 174.444 164.473 168.232 175.819 163.733 C 187.165 159.235 202.833 156.450 220.125 156.450 Z " transform="matrix(0.8275567889213562, 0.335879921913147, -0.335879921913147, 0.8275567889213562, -45.05, -179.65)"/>
    <path id="ID0.4141157087869942" fill="none" stroke="#EAC28E" stroke-width="1.995125" stroke-linecap="round" d="M 216 162.650 C 216 162.650 217.089 181.897 214.950 191.150 C 213.368 197.993 205.100 209.800 205.100 209.800 " transform="matrix(0.8275567889213562, 0.335879921913147, -0.335879921913147, 0.8275567889213562, -42.9, -183.75)"/>
    <path id="ID0.011384283192455769" fill="none" stroke="#EAC28E" stroke-width="1.995125" stroke-linecap="round" d="M 215.450 186.450 L 263.650 169.400 " transform="matrix(0.8275567889213562, 0.335879921913147, -0.335879921913147, 0.8275567889213562, -42.9, -183.75)"/>
    <path id="ID0.8657065210863948" fill="none" stroke="#EAC28E" stroke-width="1.995125" stroke-linecap="round" d="M 255.350 206.150 C 255.350 206.150 215.450 187.500 215.450 187.500 L 159 180.800 " transform="matrix(0.8275567889213562, 0.335879921913147, -0.335879921913147, 0.8275567889213562, -42.9, -183.75)"/>
    <path id="ID0.9600630304776132" fill="none" stroke="#EAC28E" stroke-width="1.995125" stroke-linecap="round" d="M 213.400 187.500 L 174.050 202.550 " transform="matrix(0.8275567889213562, 0.335879921913147, -0.335879921913147, 0.8275567889213562, -42.9, -183.75)"/>
    <path id="ID0.13748089503496885" fill="none" stroke="#EAC28E" stroke-width="1.995125" stroke-linecap="round" d="M 214.450 188.550 L 183.350 166.250 " transform="matrix(0.8275567889213562, 0.335879921913147, -0.335879921913147, 0.8275567889213562, -42.9, -183.75)"/>
    <path id="ID0.14989860635250807" fill="none" stroke="#EAC28E" stroke-width="1.995125" stroke-linecap="round" d="M 216 189.050 L 281.250 188.050 " transform="matrix(0.8275567889213562, 0.335879921913147, -0.335879921913147, 0.8275567889213562, -42.9, -183.75)"/>
  </g>
</svg>
